static/img/pictograms/picto-pack/picto-education-orange.svg

<svg xmlns="http://www.w3.org/2000/svg" width="400" height="400" viewBox="0 0 400 400"><g><path fill="#DD4814" d="M120.076 281.506l29.98-34.393v34.393h-29.98zM400 199.996v.516c-.24 13.6-11.342 24.55-24.998 24.55h-62.51v41.625c0-.004-24.962-.004-24.962-.004-16.722 0-30.325-13.603-30.325-30.33 0-10.86-8.812-19.67-19.678-19.67-10.866 0-19.67 8.81-19.67 19.67 0 38.426 31.252 71.834 69.673 71.834h24.963v43.346c0 8.922-4.756 17.166-12.47 21.643C269.69 390.723 235.102 400 200.002 400 89.715 400.003 0 310.277 0 199.994 0 89.713 89.72-.002 200.002-.002S400 89.718 400 199.998zM106.31 72.443c0 4.494-5.12 6.967-8.297 8.904-7.85 4.763-16.67 9.437-21.774 16.58-3.007 4.14-4.77 9.254-4.41 15.163h53.163V98.1H97.22v-.09c11.553-7.055 26.89-11.99 26.89-27.685 0-13.056-10.134-19.315-25.04-19.315-16.495 0-26.98 9.7-26.01 26.543H89.64c-.18-7.497 2.198-12.608 9.253-12.608 4.154 0 7.42 1.944 7.42 7.497zm-75.717 92.14h87.225V137.6H30.593v26.98zm87.225 42.51V180.1H30.593v26.99h87.225zm85.5 74.414H186.74V213.08h-35.09L95.565 278.34v33.15h54.494v24.34h36.68v-24.34h16.578v-29.982zm9.13-150.432h-18.203V164.8h-.102c-8.565-14.023-14.566-32.65-33.616-32.65-15.854 0-23.453 12.31-23.453 30.403 0 20.03 11.783 32.763 32.226 31.584v-20.13c-9.095.22-15.304-2.674-15.304-11.236 0-5.04 2.357-8.995 9.095-8.995 5.466 0 8.46 6.202 10.81 10.065 5.79 9.525 11.458 20.228 20.133 26.444 5.038 3.64 11.24 5.78 18.42 5.355v-64.567h-.005zm24.927-74.92h-30.477V25.677h-26.494v30.477H149.92v26.49h30.484v30.484h26.494V82.644h30.477v-26.49zm49.65 81.707c0-6.903-5.594-12.498-12.498-12.498-6.904 0-12.5 5.595-12.5 12.5s5.596 12.498 12.5 12.498 12.5-5.595 12.5-12.5z"/></g></svg>

<?xml version="1.0" encoding="utf-8"?>
<!-- Generator: Adobe Illustrator 17.0.2, SVG Export Plug-In . SVG Version: 6.00 Build 0)  -->
<!DOCTYPE svg PUBLIC "-//W3C//DTD SVG 1.1//EN" "http://www.w3.org/Graphics/SVG/1.1/DTD/svg11.dtd">
<svg version="1.1" xmlns="http://www.w3.org/2000/svg" xmlns:xlink="http://www.w3.org/1999/xlink" x="0px" y="0px" width="400px"
	 height="400px" viewBox="0 0 400 400" enable-background="new 0 0 400 400" xml:space="preserve">
<g id="BK" display="none">
	<rect x="-600" y="-1580" display="inline" fill="#FFFFFF" width="5100" height="4060"/>
</g>
<g id="Comp">
	<g id="_x34_9">
		<path fill="#DD4814" d="M120.076,281.506l29.979-34.393v34.393H120.076z M400,199.997c0,0.166,0,0.339,0,0.515
			c-0.24,13.6-11.342,24.55-24.998,24.55h-62.509v41.625c0-0.004-24.963-0.004-24.963-0.004c-16.722,0-30.325-13.603-30.325-30.329
			c0-10.862-8.812-19.671-19.678-19.671c-10.866,0-19.671,8.809-19.671,19.671c0,38.425,31.253,71.833,69.674,71.833h24.963v43.346
			c0,8.922-4.756,17.166-12.471,21.643c-30.332,17.547-64.919,26.825-100.02,26.825C89.716,400.002,0,310.276,0,199.993
			C0,89.714,89.719-0.002,200.002-0.002S400,89.717,400,199.997z M106.31,72.442c0,4.494-5.119,6.967-8.297,8.904
			c-7.849,4.763-16.669,9.437-21.774,16.581c-3.006,4.138-4.77,9.253-4.41,15.162h53.164v-14.99H97.219v-0.088
			c11.554-7.056,26.892-11.991,26.892-27.686c0-13.056-10.135-19.315-25.04-19.315c-16.496,0-26.981,9.701-26.01,26.543h16.577
			c-0.18-7.497,2.198-12.608,9.253-12.608C103.044,64.945,106.31,66.889,106.31,72.442z M30.593,164.581h87.225V137.6H30.593
			V164.581z M117.818,207.091v-26.988H30.593v26.988H117.818z M203.318,281.506h-16.577v-68.425H151.65l-56.085,65.257v33.151
			h54.494v24.338h36.682v-24.338h16.577L203.318,281.506L203.318,281.506z M212.448,131.074h-18.203V164.8h-0.102
			c-8.565-14.023-14.566-32.65-33.616-32.65c-15.854,0-23.453,12.309-23.453,30.403c0,20.031,11.783,32.763,32.226,31.584v-20.13
			c-9.095,0.219-15.304-2.674-15.304-11.236c0-5.041,2.357-8.996,9.095-8.996c5.465,0,8.46,6.202,10.809,10.065
			c5.789,9.525,11.458,20.228,20.133,26.444c5.038,3.641,11.24,5.779,18.419,5.355v-64.566H212.448z M237.375,56.154h-30.477V25.677
			h-26.494v30.477h-30.484v26.49h30.484v30.484h26.494V82.644h30.477V56.154z M287.026,137.861c0-6.904-5.595-12.499-12.499-12.499
			c-6.904,0-12.499,5.595-12.499,12.499s5.595,12.499,12.499,12.499C281.431,150.36,287.026,144.765,287.026,137.861z"/>
	</g>
</g>
</svg>
